X: 12
T:Willie Coyles
R:Jig
S:Willie Coyle
D:Session tape - Bangor, Down 1098? (Nigel and Dianna Boullier)
Z:Bernie Stocks
M:6/8
K:D
e |: fed edB | AdB AFA | BAF DFA | dee ede |fed edB | AdB AFA | BAF DFA | Bdd d2e ::\
fef afa | baf fed | efe edB | ABd ede | fef afa | baf fed | efe edB | Bdc d2e :|
<end>
<start>
